papirus/22x22/apps/kget.svg

<svg height="22" width="22" xmlns="http://www.w3.org/2000/svg"><g transform="translate(-1.000889 -1)"><rect fill="#37a0f2" height="20" rx="10" transform="matrix(0 -1 -1 0 0 0)" width="20" x="-22" y="-22.000889"/><path d="m12.000889 2c-5.5400001 0-10.0000001 4.46-10.0000001 10 0 .084-.002.1665 0 .25.1322-5.423 4.544-9.75 10.0000001-9.75 5.456 0 9.868 4.327 10 9.75.002-.0835 0-.166 0-.25 0-5.54-4.46-10-10-10z" fill="#fff" opacity=".2"/><path d="m10.857422 7.5c-.316572 0-.8672402.157428-.857422.3515625v5.6484375h-2l4 4 4-4h-2v-5.6484375c0-.1942826-.54085-.3515625-.857422-.3515625zm1.142578 10h-4.5c-.2766607 0-.5.223-.5.5 0 .277.223006.5.5.5h9c .277216 0 .5-.223.5-.5 0-.277-.22334-.5-.5-.5z" opacity=".2"/><path d="m10.857422 7c-.316572 0-.8672402.157428-.857422.3515625v5.6484375h-2l4 4 4-4h-2v-5.6484375c0-.1942826-.54085-.3515625-.857422-.3515625zm1.142578 10h-4.5c-.2766607 0-.5.223-.5.5 0 .277.223006.5.5.5h9c .277216 0 .5-.223.5-.5 0-.277-.22334-.5-.5-.5z" fill="#fff"/><path d="m2.0067389 11.75c-.00205.0835-.00585.166-.00585.25 0 5.54 4.46 10 10.0000001 10 5.54 0 10-4.46 10-10 0-.084-.004-.1665-.006-.25-.132 5.423-4.538 9.75-9.994 9.75-5.4560001 0-9.8620001-4.327-9.9940001-9.75z" opacity=".3"/></g></svg>

<?xml version="1.0" encoding="UTF-8" standalone="no"?>
<!-- Created with Inkscape (http://www.inkscape.org/) -->

<svg
   xmlns:dc="http://purl.org/dc/elements/1.1/"
   xmlns:cc="http://creativecommons.org/ns#"
   xmlns:rdf="http://www.w3.org/1999/02/22-rdf-syntax-ns#"
   xmlns:svg="http://www.w3.org/2000/svg"
   xmlns="http://www.w3.org/2000/svg"
   xmlns:sodipodi="http://sodipodi.sourceforge.net/DTD/sodipodi-0.dtd"
   xmlns:inkscape="http://www.inkscape.org/namespaces/inkscape"
   id="svg2817"
   height="22"
   width="22"
   version="1.0"
   inkscape:version="0.91 r13725"
   sodipodi:docname="kget.svg">
  <defs
     id="defs12" />
  <sodipodi:namedview
     pagecolor="#ffffff"
     bordercolor="#666666"
     borderopacity="1"
     objecttolerance="10"
     gridtolerance="10"
     guidetolerance="10"
     inkscape:pageopacity="0"
     inkscape:pageshadow="2"
     inkscape:window-width="1600"
     inkscape:window-height="849"
     id="namedview10"
     showgrid="false"
     inkscape:zoom="24.48"
     inkscape:cx="7.2067607"
     inkscape:cy="12"
     inkscape:window-x="0"
     inkscape:window-y="0"
     inkscape:window-maximized="1"
     inkscape:current-layer="svg2817" />
  <metadata
     id="metadata57">
    <rdf:RDF>
      <cc:Work
         rdf:about="">
        <dc:format>image/svg+xml</dc:format>
        <dc:type
           rdf:resource="http://purl.org/dc/dcmitype/StillImage" />
        <dc:title></dc:title>
      </cc:Work>
    </rdf:RDF>
  </metadata>
  <g
     id="g4137"
     transform="translate(-1.000889,-1)">
    <rect
       id="rect4203-2"
       transform="matrix(0,-1,-1,0,0,0)"
       rx="10"
       ry="10"
       height="20"
       width="20"
       y="-22.000889"
       x="-22"
       style="fill:#37a0f2" />
    <path
       id="rect3436"
       d="M 12.000889,2 C 6.4608889,2 2.0008889,6.46 2.0008889,12 c 0,0.084 -0.002,0.1665 0,0.25 0.1322,-5.423 4.544,-9.75 10.0000001,-9.75 5.456,0 9.868,4.327 10,9.75 0.002,-0.0835 0,-0.166 0,-0.25 0,-5.54 -4.46,-10 -10,-10 z"
       inkscape:connector-curvature="0"
       style="opacity:0.2;fill:#ffffff" />
    <path
       inkscape:connector-curvature="0"
       style="opacity:0.2;fill:#000000;fill-opacity:1"
       d="M 10.857422,7.5 C 10.54085,7.5 9.9901818,7.657428 10,7.8515625 L 10,13.5 l -2,0 4,4 4,-4 -2,0 0,-5.6484375 C 14,7.6572799 13.45915,7.5 13.142578,7.5 l -2.285156,0 z M 12,17.5 7.5,17.5 C 7.2233393,17.5 7,17.723 7,18 c 0,0.277 0.223006,0.5 0.5,0.5 l 9,0 c 0.277216,0 0.5,-0.223 0.5,-0.5 0,-0.277 -0.22334,-0.5 -0.5,-0.5 l -4.5,0 z"
       id="path4150" />
    <path
       id="path4147"
       d="M 10.857422,7 C 10.54085,7 9.9901818,7.157428 10,7.3515625 L 10,13 l -2,0 4,4 4,-4 -2,0 0,-5.6484375 C 14,7.1572799 13.45915,7 13.142578,7 L 10.857422,7 Z M 12,17 7.5,17 C 7.2233393,17 7,17.223 7,17.5 7,17.777 7.223006,18 7.5,18 l 9,0 C 16.777216,18 17,17.777 17,17.5 17,17.223 16.77666,17 16.5,17 L 12,17 Z"
       style="fill:#ffffff"
       inkscape:connector-curvature="0" />
    <path
       id="rect4209"
       d="m 2.0067389,11.75 c -0.00205,0.0835 -0.00585,0.166 -0.00585,0.25 0,5.54 4.46,10 10.0000001,10 5.54,0 10,-4.46 10,-10 0,-0.084 -0.004,-0.1665 -0.006,-0.25 -0.132,5.423 -4.538,9.75 -9.994,9.75 -5.4560001,0 -9.8620001,-4.327 -9.9940001,-9.75 z"
       inkscape:connector-curvature="0"
       style="opacity:0.3" />
  </g>
</svg>
